X:1
T:I'm Off to Boise City
M:4/4
L:1/4
K:G
 G| D D D E| G/2 G3/2 z/2 B/2 B| B B BA/2-G/2| G2 z| z| z/2 G G/2 G E|\
 G G2 G| G G/2 G D/2 E| D2 z| G| D D D E| G G2 z/2 G/2| B BB/2-A/2 G|\
 B2 z| A| G G G G| G/2 C3/2- C/2G/2 G| G/2 G3/2 G E/2 D/2-| D zG/2-A/2|\
 z| B3 G|B/2-A/2 A2 G| G4-| G z||
